src/assets/filled/CalendarRemove.svg

<svg width="24" height="24" viewBox="0 0 24 24"  xmlns="http://www.w3.org/2000/svg">
<path d="M16.75 3.56V2C16.75 1.59 16.41 1.25 16 1.25C15.59 1.25 15.25 1.59 15.25 2V3.5H8.74999V2C8.74999 1.59 8.40999 1.25 7.99999 1.25C7.58999 1.25 7.24999 1.59 7.24999 2V3.56C4.54999 3.81 3.23999 5.42 3.03999 7.81C3.01999 8.1 3.25999 8.34 3.53999 8.34H20.46C20.75 8.34 20.99 8.09 20.96 7.81C20.76 5.42 19.45 3.81 16.75 3.56Z" />
<path d="M20 9.83984H4C3.45 9.83984 3 10.2898 3 10.8398V16.9998C3 19.9998 4.5 21.9998 8 21.9998H12.93C13.62 21.9998 14.1 21.3298 13.88 20.6798C13.68 20.0998 13.51 19.4598 13.51 18.9998C13.51 15.9698 15.98 13.4998 19.01 13.4998C19.3 13.4998 19.59 13.5198 19.87 13.5698C20.47 13.6598 21.01 13.1898 21.01 12.5898V10.8498C21 10.2898 20.55 9.83984 20 9.83984ZM9.21 17.7098C9.02 17.8898 8.76 17.9998 8.5 17.9998C8.37 17.9998 8.24 17.9698 8.12 17.9198C8 17.8698 7.89 17.7998 7.79 17.7098C7.61 17.5198 7.5 17.2698 7.5 16.9998C7.5 16.8698 7.53 16.7398 7.58 16.6198C7.63 16.4898 7.7 16.3898 7.79 16.2898C7.89 16.1998 8 16.1298 8.12 16.0798C8.48 15.9198 8.93 16.0098 9.21 16.2898C9.3 16.3898 9.37 16.4898 9.42 16.6198C9.47 16.7398 9.5 16.8698 9.5 16.9998C9.5 17.2698 9.39 17.5198 9.21 17.7098ZM9.21 14.2098C9.02 14.3898 8.76 14.4998 8.5 14.4998C8.37 14.4998 8.24 14.4798 8.12 14.4198C8 14.3698 7.89 14.2998 7.79 14.2098C7.61 14.0198 7.5 13.7598 7.5 13.4998C7.5 13.3698 7.53 13.2398 7.58 13.1198C7.63 12.9998 7.7 12.8898 7.79 12.7898C7.89 12.6998 8 12.6298 8.12 12.5798C8.48 12.4298 8.93 12.5098 9.21 12.7898C9.3 12.8898 9.37 12.9998 9.42 13.1198C9.47 13.2398 9.5 13.3698 9.5 13.4998C9.5 13.7598 9.39 14.0198 9.21 14.2098ZM12.92 13.8798C12.87 13.9998 12.8 14.1098 12.71 14.2098C12.61 14.2998 12.5 14.3698 12.38 14.4198C12.26 14.4798 12.13 14.4998 12 14.4998C11.74 14.4998 11.48 14.3898 11.29 14.2098C11.2 14.1098 11.13 13.9998 11.08 13.8798C11.03 13.7598 11 13.6298 11 13.4998C11 13.2398 11.11 12.9798 11.29 12.7898C11.57 12.5098 12.01 12.4198 12.38 12.5798C12.5 12.6298 12.61 12.6998 12.71 12.7898C12.89 12.9798 13 13.2398 13 13.4998C13 13.6298 12.98 13.7598 12.92 13.8798Z" />
<path d="M19 15C16.79 15 15 16.79 15 19C15 21.21 16.79 23 19 23C21.21 23 23 21.21 23 19C23 16.79 21.21 15 19 15ZM20.6 20.64C20.45 20.79 20.26 20.86 20.07 20.86C19.88 20.86 19.69 20.79 19.54 20.64L19.01 20.11L18.46 20.66C18.31 20.81 18.12 20.88 17.93 20.88C17.74 20.88 17.55 20.81 17.4 20.66C17.11 20.37 17.11 19.89 17.4 19.6L17.95 19.05L17.42 18.52C17.13 18.23 17.13 17.75 17.42 17.46C17.71 17.17 18.19 17.17 18.48 17.46L19.01 18L19.51 17.5C19.8 17.21 20.28 17.21 20.57 17.5C20.86 17.79 20.86 18.27 20.57 18.56L20.07 19.06L20.6 19.59C20.89 19.88 20.89 20.35 20.6 20.64Z" />
</svg>

<?xml version="1.0" encoding="UTF-8"?>
<svg width="24" height="24" viewBox="0 0 24 24" xmlns="http://www.w3.org/2000/svg">
 <path d="m16.75 3.56v-1.56c0-0.41-0.34-0.75-0.75-0.75s-0.75 0.34-0.75 0.75v1.5h-6.5v-1.5c0-0.41-0.34-0.75-0.75-0.75s-0.75 0.34-0.75 0.75v1.56c-2.7 0.25-4.01 1.86-4.21 4.25-0.02 0.29 0.22 0.53 0.5 0.53h16.92c0.29 0 0.53-0.25 0.5-0.53-0.2-2.39-1.51-4-4.21-4.25z"/>
 <path d="m20 9.8398h-16c-0.55 0-1 0.44996-1 0.99996v6.16c0 3 1.5 5 5 5h4.93c0.69 0 1.17-0.67 0.95-1.32-0.2-0.58-0.37-1.22-0.37-1.68 0-3.03 2.47-5.5 5.5-5.5 0.29 0 0.58 0.02 0.86 0.07 0.6 0.09 1.14-0.38 1.14-0.98v-1.74c-0.01-0.56-0.46-1.01-1.01-1.01zm-10.79 7.87c-0.19 0.18-0.45 0.29-0.71 0.29-0.13 0-0.26-0.03-0.38-0.08s-0.23-0.12-0.33-0.21c-0.18-0.19-0.29-0.44-0.29-0.71 0-0.13 0.03-0.26 0.08-0.38 0.05-0.13 0.12-0.23 0.21-0.33 0.1-0.09 0.21-0.16 0.33-0.21 0.36-0.16 0.81-0.07 1.09 0.21 0.09 0.1 0.16 0.2 0.21 0.33 0.05 0.12 0.08 0.25 0.08 0.38 0 0.27-0.11 0.52-0.29 0.71zm0-3.5c-0.19 0.18-0.45 0.29-0.71 0.29-0.13 0-0.26-0.02-0.38-0.08-0.12-0.05-0.23-0.12-0.33-0.21-0.18-0.19-0.29-0.45-0.29-0.71 0-0.13 0.03-0.26 0.08-0.38s0.12-0.23 0.21-0.33c0.1-0.09 0.21-0.16 0.33-0.21 0.36-0.15 0.81-0.07 1.09 0.21 0.09 0.1 0.16 0.21 0.21 0.33s0.08 0.25 0.08 0.38c0 0.26-0.11 0.52-0.29 0.71zm3.71-0.33c-0.05 0.12-0.12 0.23-0.21 0.33-0.1 0.09-0.21 0.16-0.33 0.21-0.12 0.06-0.25 0.08-0.38 0.08-0.26 0-0.52-0.11-0.71-0.29-0.09-0.1-0.16-0.21-0.21-0.33s-0.08-0.25-0.08-0.38c0-0.26 0.11-0.52 0.29-0.71 0.28-0.28 0.72-0.37 1.09-0.21 0.12 0.05 0.23 0.12 0.33 0.21 0.18 0.19 0.29 0.45 0.29 0.71 0 0.13-0.02 0.26-0.08 0.38z"/>
 <path d="m19 15c-2.21 0-4 1.79-4 4s1.79 4 4 4 4-1.79 4-4-1.79-4-4-4zm1.6 5.64c-0.15 0.15-0.34 0.22-0.53 0.22s-0.38-0.07-0.53-0.22l-0.53-0.53-0.55 0.55c-0.15 0.15-0.34 0.22-0.53 0.22s-0.38-0.07-0.53-0.22c-0.29-0.29-0.29-0.77 0-1.06l0.55-0.55-0.53-0.53c-0.29-0.29-0.29-0.77 0-1.06s0.77-0.29 1.06 0l0.53 0.54 0.5-0.5c0.29-0.29 0.77-0.29 1.06 0s0.29 0.77 0 1.06l-0.5 0.5 0.53 0.53c0.29 0.29 0.29 0.76 0 1.05z"/>
</svg>
